static/stories/nsoromma_10_1.svg

<svg xmlns="http://www.w3.org/2000/svg" xmlns:xlink="http://www.w3.org/1999/xlink" width="500" zoomAndPan="magnify" viewBox="0 0 375 374.999991" height="500" preserveAspectRatio="xMidYMid meet" version="1.0"><defs><clipPath id="742947f0a2"><path d="M 112.5 112.5 L 262.5 112.5 L 262.5 262.5 L 112.5 262.5 Z M 112.5 112.5 " clip-rule="nonzero"/></clipPath><clipPath id="4510686422"><path d="M 123.042969 125.785156 L 252 125.785156 L 252 249.535156 L 123.042969 249.535156 Z M 123.042969 125.785156 " clip-rule="nonzero"/></clipPath></defs><g clip-path="url(#742947f0a2)"><path fill="#65934b" d="M 262.5 187.5 C 262.5 188.726562 262.46875 189.953125 262.410156 191.179688 C 262.347656 192.40625 262.257812 193.628906 262.140625 194.851562 C 262.019531 196.074219 261.867188 197.289062 261.6875 198.503906 C 261.507812 199.71875 261.296875 200.929688 261.058594 202.132812 C 260.820312 203.335938 260.550781 204.53125 260.253906 205.722656 C 259.953125 206.914062 259.625 208.097656 259.269531 209.269531 C 258.914062 210.445312 258.527344 211.609375 258.117188 212.765625 C 257.703125 213.921875 257.261719 215.066406 256.789062 216.203125 C 256.320312 217.335938 255.824219 218.457031 255.300781 219.566406 C 254.773438 220.675781 254.222656 221.773438 253.644531 222.855469 C 253.066406 223.9375 252.460938 225.003906 251.828125 226.058594 C 251.199219 227.109375 250.542969 228.148438 249.859375 229.167969 C 249.179688 230.1875 248.472656 231.191406 247.742188 232.175781 C 247.007812 233.164062 246.253906 234.128906 245.476562 235.078125 C 244.695312 236.027344 243.894531 236.957031 243.070312 237.867188 C 242.246094 238.777344 241.402344 239.664062 240.53125 240.53125 C 239.664062 241.402344 238.777344 242.246094 237.867188 243.070312 C 236.957031 243.894531 236.027344 244.695312 235.078125 245.476562 C 234.128906 246.253906 233.164062 247.007812 232.175781 247.742188 C 231.191406 248.472656 230.1875 249.179688 229.167969 249.859375 C 228.148438 250.542969 227.109375 251.199219 226.058594 251.828125 C 225.003906 252.460938 223.9375 253.066406 222.855469 253.644531 C 221.773438 254.222656 220.675781 254.773438 219.566406 255.300781 C 218.457031 255.824219 217.335938 256.320312 216.203125 256.789062 C 215.066406 257.261719 213.921875 257.703125 212.765625 258.117188 C 211.609375 258.527344 210.445312 258.914062 209.269531 259.269531 C 208.097656 259.625 206.914062 259.953125 205.722656 260.253906 C 204.53125 260.550781 203.335938 260.820312 202.132812 261.058594 C 200.929688 261.296875 199.71875 261.507812 198.503906 261.6875 C 197.289062 261.867188 196.074219 262.019531 194.851562 262.140625 C 193.628906 262.257812 192.40625 262.347656 191.179688 262.410156 C 189.953125 262.46875 188.726562 262.5 187.5 262.5 C 186.273438 262.5 185.046875 262.46875 183.820312 262.410156 C 182.59375 262.347656 181.371094 262.257812 180.148438 262.140625 C 178.925781 262.019531 177.710938 261.867188 176.496094 261.6875 C 175.28125 261.507812 174.070312 261.296875 172.867188 261.058594 C 171.664062 260.820312 170.46875 260.550781 169.277344 260.253906 C 168.085938 259.953125 166.902344 259.625 165.730469 259.269531 C 164.554688 258.914062 163.390625 258.527344 162.234375 258.117188 C 161.078125 257.703125 159.933594 257.261719 158.796875 256.789062 C 157.664062 256.320312 156.542969 255.824219 155.433594 255.300781 C 154.324219 254.773438 153.226562 254.222656 152.144531 253.644531 C 151.0625 253.066406 149.996094 252.460938 148.941406 251.828125 C 147.890625 251.199219 146.851562 250.542969 145.832031 249.859375 C 144.8125 249.179688 143.808594 248.472656 142.824219 247.742188 C 141.835938 247.007812 140.871094 246.253906 139.921875 245.476562 C 138.972656 244.695312 138.042969 243.894531 137.132812 243.070312 C 136.222656 242.246094 135.335938 241.402344 134.46875 240.53125 C 133.597656 239.664062 132.753906 238.777344 131.929688 237.867188 C 131.105469 236.957031 130.304688 236.027344 129.523438 235.078125 C 128.746094 234.128906 127.992188 233.164062 127.257812 232.175781 C 126.527344 231.191406 125.820312 230.1875 125.140625 229.167969 C 124.457031 228.148438 123.800781 227.109375 123.171875 226.058594 C 122.539062 225.003906 121.933594 223.9375 121.355469 222.855469 C 120.777344 221.773438 120.226562 220.675781 119.699219 219.566406 C 119.175781 218.457031 118.679688 217.335938 118.210938 216.203125 C 117.738281 215.066406 117.296875 213.921875 116.882812 212.765625 C 116.46875 211.609375 116.085938 210.445312 115.730469 209.269531 C 115.375 208.097656 115.046875 206.914062 114.746094 205.722656 C 114.449219 204.53125 114.179688 203.335938 113.941406 202.132812 C 113.703125 200.929688 113.492188 199.71875 113.3125 198.503906 C 113.132812 197.289062 112.980469 196.074219 112.859375 194.851562 C 112.742188 193.628906 112.652344 192.40625 112.589844 191.179688 C 112.53125 189.953125 112.5 188.726562 112.5 187.5 C 112.5 186.273438 112.53125 185.046875 112.589844 183.820312 C 112.652344 182.59375 112.742188 181.371094 112.859375 180.148438 C 112.980469 178.925781 113.132812 177.710938 113.3125 176.496094 C 113.492188 175.28125 113.703125 174.070312 113.941406 172.867188 C 114.179688 171.664062 114.449219 170.46875 114.746094 169.277344 C 115.046875 168.085938 115.375 166.902344 115.730469 165.730469 C 116.085938 164.554688 116.46875 163.390625 116.882812 162.234375 C 117.296875 161.078125 117.738281 159.933594 118.210938 158.796875 C 118.679688 157.664062 119.175781 156.542969 119.699219 155.433594 C 120.226562 154.324219 120.777344 153.226562 121.355469 152.144531 C 121.933594 151.0625 122.539062 149.996094 123.171875 148.941406 C 123.800781 147.890625 124.457031 146.851562 125.140625 145.832031 C 125.820312 144.8125 126.527344 143.808594 127.257812 142.824219 C 127.992188 141.835938 128.746094 140.871094 129.523438 139.921875 C 130.304688 138.972656 131.105469 138.042969 131.929688 137.132812 C 132.753906 136.222656 133.597656 135.335938 134.46875 134.46875 C 135.335938 133.597656 136.222656 132.753906 137.132812 131.929688 C 138.042969 131.105469 138.972656 130.304688 139.921875 129.523438 C 140.871094 128.746094 141.835938 127.992188 142.824219 127.257812 C 143.808594 126.527344 144.8125 125.820312 145.832031 125.140625 C 146.851562 124.457031 147.890625 123.800781 148.941406 123.171875 C 149.996094 122.539062 151.0625 121.933594 152.144531 121.355469 C 153.226562 120.777344 154.324219 120.226562 155.433594 119.699219 C 156.542969 119.175781 157.664062 118.679688 158.796875 118.210938 C 159.933594 117.738281 161.078125 117.296875 162.234375 116.882812 C 163.390625 116.46875 164.554688 116.085938 165.730469 115.730469 C 166.902344 115.375 168.085938 115.046875 169.277344 114.746094 C 170.46875 114.449219 171.664062 114.179688 172.867188 113.941406 C 174.070312 113.703125 175.28125 113.492188 176.496094 113.3125 C 177.710938 113.132812 178.925781 112.980469 180.148438 112.859375 C 181.371094 112.742188 182.59375 112.652344 183.820312 112.589844 C 185.046875 112.53125 186.273438 112.5 187.5 112.5 C 188.726562 112.5 189.953125 112.53125 191.179688 112.589844 C 192.40625 112.652344 193.628906 112.742188 194.851562 112.859375 C 196.074219 112.980469 197.289062 113.132812 198.503906 113.3125 C 199.71875 113.492188 200.929688 113.703125 202.132812 113.941406 C 203.335938 114.179688 204.53125 114.449219 205.722656 114.746094 C 206.914062 115.046875 208.097656 115.375 209.269531 115.730469 C 210.445312 116.085938 211.609375 116.46875 212.765625 116.882812 C 213.921875 117.296875 215.066406 117.738281 216.203125 118.210938 C 217.335938 118.679688 218.457031 119.175781 219.566406 119.699219 C 220.675781 120.226562 221.773438 120.777344 222.855469 121.355469 C 223.9375 121.933594 225.003906 122.539062 226.058594 123.171875 C 227.109375 123.800781 228.148438 124.457031 229.167969 125.140625 C 230.1875 125.820312 231.191406 126.527344 232.175781 127.257812 C 233.164062 127.992188 234.128906 128.746094 235.078125 129.523438 C 236.027344 130.304688 236.957031 131.105469 237.867188 131.929688 C 238.777344 132.753906 239.664062 133.597656 240.53125 134.46875 C 241.402344 135.335938 242.246094 136.222656 243.070312 137.132812 C 243.894531 138.042969 244.695312 138.972656 245.476562 139.921875 C 246.253906 140.871094 247.007812 141.835938 247.742188 142.824219 C 248.472656 143.808594 249.179688 144.8125 249.859375 145.832031 C 250.542969 146.851562 251.199219 147.890625 251.828125 148.941406 C 252.460938 149.996094 253.066406 151.0625 253.644531 152.144531 C 254.222656 153.226562 254.773438 154.324219 255.300781 155.433594 C 255.824219 156.542969 256.320312 157.664062 256.789062 158.796875 C 257.261719 159.933594 257.703125 161.078125 258.117188 162.234375 C 258.527344 163.390625 258.914062 164.554688 259.269531 165.730469 C 259.625 166.902344 259.953125 168.085938 260.253906 169.277344 C 260.550781 170.46875 260.820312 171.664062 261.058594 172.867188 C 261.296875 174.070312 261.507812 175.28125 261.6875 176.496094 C 261.867188 177.710938 262.019531 178.925781 262.140625 180.148438 C 262.257812 181.371094 262.347656 182.59375 262.410156 183.820312 C 262.46875 185.046875 262.5 186.273438 262.5 187.5 Z M 262.5 187.5 " fill-opacity="1" fill-rule="nonzero"/></g><g clip-path="url(#4510686422)"><path fill="#000000" d="M 166.179688 126.730469 L 186.863281 158.800781 L 206.003906 125.785156 L 203.921875 163.910156 L 238.777344 148.46875 L 214.726562 178.089844 L 251.980469 186.132812 L 215.152344 195.925781 L 240.574219 224.367188 L 205.027344 210.601562 L 208.910156 248.589844 L 188.226562 216.515625 L 169.085938 249.535156 L 171.167969 211.40625 L 136.3125 226.847656 L 160.363281 197.230469 L 123.109375 189.1875 L 159.9375 179.390625 L 134.515625 150.949219 L 170.0625 164.714844 Z M 187.542969 173.757812 C 195.203125 173.757812 201.417969 179.980469 201.417969 187.660156 C 201.417969 195.335938 195.203125 201.558594 187.542969 201.558594 C 179.882812 201.558594 173.667969 195.335938 173.667969 187.660156 C 173.667969 179.980469 179.882812 173.757812 187.542969 173.757812 Z M 187.542969 173.757812 " fill-opacity="1" fill-rule="evenodd"/></g></svg>

<?xml version="1.0" encoding="UTF-8" standalone="no"?>
<svg
   width="200"
   zoomAndPan="magnify"
   viewBox="0 0 150 150"
   height="200"
   preserveAspectRatio="xMidYMid"
   version="1.0"
   id="svg4"
   sodipodi:docname="nsoromma.svg"
   inkscape:version="1.3.2 (091e20e, 2023-11-25, custom)"
   xmlns:inkscape="http://www.inkscape.org/namespaces/inkscape"
   xmlns:sodipodi="http://sodipodi.sourceforge.net/DTD/sodipodi-0.dtd"
   xmlns="http://www.w3.org/2000/svg"
   xmlns:svg="http://www.w3.org/2000/svg">
  <sodipodi:namedview
     id="namedview4"
     pagecolor="#ffffff"
     bordercolor="#000000"
     borderopacity="0.25"
     inkscape:showpageshadow="2"
     inkscape:pageopacity="0.0"
     inkscape:pagecheckerboard="0"
     inkscape:deskcolor="#d1d1d1"
     inkscape:zoom="1.532"
     inkscape:cx="99.869452"
     inkscape:cy="99.869452"
     inkscape:window-width="1920"
     inkscape:window-height="991"
     inkscape:window-x="-9"
     inkscape:window-y="-9"
     inkscape:window-maximized="1"
     inkscape:current-layer="svg4" />
  <defs
     id="defs2">
    <clipPath
       id="742947f0a2">
      <path
         d="m 112.5,112.5 h 150 v 150 h -150 z m 0,0"
         clip-rule="nonzero"
         id="path1" />
    </clipPath>
    <clipPath
       id="4510686422">
      <path
         d="M 123.04297,125.78516 H 252 v 123.75 H 123.04297 Z m 0,0"
         clip-rule="nonzero"
         id="path2" />
    </clipPath>
  </defs>
  <g
     clip-path="url(#742947f0a2)"
     id="g3"
     transform="translate(-112.5,-112.5)">
    <path
       fill="#65934b"
       d="m 262.5,187.5 c 0,1.22656 -0.0312,2.45312 -0.0898,3.67969 -0.0625,1.22656 -0.15235,2.44922 -0.26954,3.67187 -0.12109,1.22266 -0.27343,2.4375 -0.45312,3.65235 -0.17969,1.21484 -0.39063,2.42578 -0.62891,3.6289 -0.23828,1.20313 -0.50781,2.39844 -0.80468,3.58985 -0.30079,1.1914 -0.62891,2.375 -0.98438,3.54687 -0.35547,1.17578 -0.74219,2.33984 -1.15234,3.49609 -0.41407,1.15625 -0.85547,2.30079 -1.32813,3.4375 -0.46875,1.13282 -0.96484,2.25391 -1.48828,3.36329 -0.52734,1.10937 -1.07812,2.20703 -1.65625,3.28906 -0.57812,1.08203 -1.18359,2.14844 -1.81641,3.20312 -0.6289,1.05078 -1.28515,2.08985 -1.96875,3.10938 -0.67968,1.01953 -1.38671,2.02344 -2.11718,3.00781 -0.73438,0.98828 -1.48828,1.95313 -2.26563,2.90234 -0.78125,0.94922 -1.58203,1.87891 -2.40625,2.78907 -0.82422,0.91015 -1.66797,1.79687 -2.53906,2.66406 -0.86719,0.87109 -1.75391,1.71484 -2.66406,2.53906 -0.91016,0.82422 -1.83985,1.625 -2.78907,2.40625 -0.94921,0.77735 -1.91406,1.53125 -2.90234,2.26563 -0.98437,0.73047 -1.98828,1.4375 -3.00781,2.11718 -1.01953,0.6836 -2.0586,1.33985 -3.10938,1.96875 -1.05468,0.63282 -2.12109,1.23829 -3.20312,1.81641 -1.08203,0.57813 -2.17969,1.12891 -3.28906,1.65625 -1.10938,0.52344 -2.23047,1.01953 -3.36329,1.48828 -1.13671,0.47266 -2.28125,0.91406 -3.4375,1.32813 -1.15625,0.41015 -2.32031,0.79687 -3.49609,1.15234 -1.17187,0.35547 -2.35547,0.68359 -3.54687,0.98438 -1.19141,0.29687 -2.38672,0.5664 -3.58985,0.80468 -1.20312,0.23828 -2.41406,0.44922 -3.6289,0.62891 -1.21485,0.17969 -2.42969,0.33203 -3.65235,0.45312 -1.22265,0.11719 -2.44531,0.20704 -3.67187,0.26954 -1.22657,0.0586 -2.45313,0.0898 -3.67969,0.0898 -1.22656,0 -2.45313,-0.0312 -3.67969,-0.0898 -1.22656,-0.0625 -2.44922,-0.15235 -3.67187,-0.26954 -1.22266,-0.12109 -2.4375,-0.27343 -3.65235,-0.45312 -1.21484,-0.17969 -2.42578,-0.39063 -3.6289,-0.62891 -1.20313,-0.23828 -2.39844,-0.50781 -3.58985,-0.80468 -1.1914,-0.30079 -2.375,-0.62891 -3.54687,-0.98438 -1.17578,-0.35547 -2.33985,-0.74219 -3.4961,-1.15234 -1.15625,-0.41407 -2.30078,-0.85547 -3.4375,-1.32813 -1.13281,-0.46875 -2.2539,-0.96484 -3.36328,-1.48828 -1.10937,-0.52734 -2.20703,-1.07812 -3.28906,-1.65625 -1.08203,-0.57812 -2.14844,-1.18359 -3.20312,-1.81641 -1.05079,-0.6289 -2.08985,-1.28515 -3.10938,-1.96875 -1.01953,-0.67968 -2.02344,-1.38671 -3.00781,-2.11718 -0.98828,-0.73438 -1.95313,-1.48828 -2.90235,-2.26563 -0.94921,-0.78125 -1.8789,-1.58203 -2.78906,-2.40625 -0.91015,-0.82422 -1.79687,-1.66797 -2.66406,-2.53906 -0.87109,-0.86719 -1.71484,-1.75391 -2.53906,-2.66406 -0.82422,-0.91016 -1.625,-1.83985 -2.40625,-2.78907 -0.77735,-0.94921 -1.53125,-1.91406 -2.26563,-2.90234 -0.73047,-0.98437 -1.4375,-1.98828 -2.11718,-3.00781 -0.6836,-1.01953 -1.33985,-2.0586 -1.96875,-3.10938 -0.63282,-1.05468 -1.23829,-2.12109 -1.81641,-3.20312 -0.57813,-1.08203 -1.12891,-2.17969 -1.65625,-3.28906 -0.52344,-1.10938 -1.01953,-2.23047 -1.48828,-3.36329 -0.47266,-1.13671 -0.91406,-2.28125 -1.32813,-3.4375 -0.41406,-1.15625 -0.79687,-2.32031 -1.15234,-3.49609 -0.35547,-1.17187 -0.68359,-2.35547 -0.98438,-3.54687 -0.29687,-1.19141 -0.5664,-2.38672 -0.80468,-3.58985 -0.23828,-1.20312 -0.44922,-2.41406 -0.62891,-3.6289 -0.17969,-1.21485 -0.33203,-2.42969 -0.45312,-3.65235 -0.11719,-1.22265 -0.20704,-2.44531 -0.26954,-3.67187 -0.0586,-1.22657 -0.0898,-2.45313 -0.0898,-3.67969 0,-1.22656 0.0312,-2.45313 0.0898,-3.67969 0.0625,-1.22656 0.15235,-2.44922 0.26954,-3.67187 0.12109,-1.22266 0.27343,-2.4375 0.45312,-3.65235 0.17969,-1.21484 0.39063,-2.42578 0.62891,-3.6289 0.23828,-1.20313 0.50781,-2.39844 0.80468,-3.58985 0.30079,-1.1914 0.62891,-2.375 0.98438,-3.54687 0.35547,-1.17578 0.73828,-2.33985 1.15234,-3.4961 0.41407,-1.15625 0.85547,-2.30078 1.32813,-3.4375 0.46875,-1.13281 0.96484,-2.2539 1.48828,-3.36328 0.52734,-1.10937 1.07812,-2.20703 1.65625,-3.28906 0.57812,-1.08203 1.18359,-2.14844 1.81641,-3.20312 0.6289,-1.05079 1.28515,-2.08985 1.96875,-3.10938 0.67968,-1.01953 1.38671,-2.02344 2.11718,-3.00781 0.73438,-0.98828 1.48828,-1.95313 2.26563,-2.90235 0.78125,-0.94921 1.58203,-1.8789 2.40625,-2.78906 0.82422,-0.91015 1.66797,-1.79687 2.53906,-2.66406 0.86719,-0.87109 1.75391,-1.71484 2.66406,-2.53906 0.91016,-0.82422 1.83985,-1.625 2.78906,-2.40625 0.94922,-0.77735 1.91407,-1.53125 2.90235,-2.26563 0.98437,-0.73047 1.98828,-1.4375 3.00781,-2.11718 1.01953,-0.6836 2.05859,-1.33985 3.10938,-1.96875 1.05468,-0.63282 2.12109,-1.23829 3.20312,-1.81641 1.08203,-0.57813 2.17969,-1.12891 3.28906,-1.65625 1.10938,-0.52344 2.23047,-1.01953 3.36328,-1.48828 1.13672,-0.47266 2.28125,-0.91406 3.4375,-1.32813 1.15625,-0.41406 2.32032,-0.79687 3.4961,-1.15234 1.17187,-0.35547 2.35547,-0.68359 3.54687,-0.98438 1.19141,-0.29687 2.38672,-0.5664 3.58985,-0.80468 1.20312,-0.23828 2.41406,-0.44922 3.6289,-0.62891 1.21485,-0.17969 2.42969,-0.33203 3.65235,-0.45312 1.22265,-0.11719 2.44531,-0.20704 3.67187,-0.26954 1.22656,-0.0586 2.45313,-0.0898 3.67969,-0.0898 1.22656,0 2.45312,0.0312 3.67969,0.0898 1.22656,0.0625 2.44922,0.15235 3.67187,0.26954 1.22266,0.12109 2.4375,0.27343 3.65235,0.45312 1.21484,0.17969 2.42578,0.39063 3.6289,0.62891 1.20313,0.23828 2.39844,0.50781 3.58985,0.80468 1.1914,0.30079 2.375,0.62891 3.54687,0.98438 1.17578,0.35547 2.33984,0.73828 3.49609,1.15234 1.15625,0.41407 2.30079,0.85547 3.4375,1.32813 1.13282,0.46875 2.25391,0.96484 3.36329,1.48828 1.10937,0.52734 2.20703,1.07812 3.28906,1.65625 1.08203,0.57812 2.14844,1.18359 3.20312,1.81641 1.05078,0.6289 2.08985,1.28515 3.10938,1.96875 1.01953,0.67968 2.02344,1.38671 3.00781,2.11718 0.98828,0.73438 1.95313,1.48828 2.90234,2.26563 0.94922,0.78125 1.87891,1.58203 2.78907,2.40625 0.91015,0.82422 1.79687,1.66797 2.66406,2.53906 0.87109,0.86719 1.71484,1.75391 2.53906,2.66406 0.82422,0.91016 1.625,1.83985 2.40625,2.78906 0.77735,0.94922 1.53125,1.91407 2.26563,2.90235 0.73047,0.98437 1.4375,1.98828 2.11718,3.00781 0.6836,1.01953 1.33985,2.05859 1.96875,3.10938 0.63282,1.05468 1.23829,2.12109 1.81641,3.20312 0.57813,1.08203 1.12891,2.17969 1.65625,3.28906 0.52344,1.10938 1.01953,2.23047 1.48828,3.36328 0.47266,1.13672 0.91406,2.28125 1.32813,3.4375 0.41015,1.15625 0.79687,2.32032 1.15234,3.4961 0.35547,1.17187 0.68359,2.35547 0.98438,3.54687 0.29687,1.19141 0.5664,2.38672 0.80468,3.58985 0.23828,1.20312 0.44922,2.41406 0.62891,3.6289 0.17969,1.21485 0.33203,2.42969 0.45312,3.65235 0.11719,1.22265 0.20704,2.44531 0.26954,3.67187 0.0586,1.22656 0.0898,2.45313 0.0898,3.67969 z m 0,0"
       fill-opacity="1"
       fill-rule="nonzero"
       id="path3" />
  </g>
  <g
     clip-path="url(#4510686422)"
     id="g4"
     transform="translate(-112.5,-112.5)">
    <path
       fill="#000000"
       d="m 166.17969,126.73047 20.68359,32.07031 19.14063,-33.01562 -2.08204,38.125 34.85547,-15.44141 -24.05078,29.62109 37.25391,8.04297 -36.82813,9.79297 25.42188,28.44141 -35.54688,-13.76563 3.88282,37.98828 -20.6836,-32.07422 -19.14062,33.01954 2.08203,-38.12891 -34.85547,15.44141 24.05078,-29.61719 -37.2539,-8.04297 36.82812,-9.79688 -25.42188,-28.4414 35.54688,13.76562 z m 21.36328,47.02734 c 7.66015,0 13.875,6.22266 13.875,13.90235 0,7.67578 -6.21485,13.89843 -13.875,13.89843 -7.66016,0 -13.875,-6.22265 -13.875,-13.89843 0,-7.67969 6.21484,-13.90235 13.875,-13.90235 z m 0,0"
       fill-opacity="1"
       fill-rule="evenodd"
       id="path4" />
  </g>
</svg>
